X:1
T:Christ Is King
T:Christ Is King
T:Oren DeLoss Smith
T:Charles Reign Scoville, 1908
T:Public Domain Courtesy of the Cyber Hymnal™
T:Public Domain Courtesy of the Cyber Hymnal™
T:Public Domain Courtesy of the Cyber Hymnal™
C:Oren DeLoss Smith
Z:Public Domain
Z:Courtesy of the Cyber Hymnal™
%%score ( 1 2 ) ( 3 4 )
L:1/8
Q:1/4=155
M:6/4
K:Eb
V:1 treble 
V:2 treble 
V:3 bass 
V:4 bass 
V:1
 (z2 [G,B,E]2 [G,B,E]2) (z2 [G,=B,F]2 [G,B,F]2) | z2 [G,CE]2 [G,CE]2 [G,CE]2 [A,A]2 [=A,=A]2 | %2
w: |* * * 1.~Come, friends,|
w: |* * * 2.~Cru- ci-|
w: |* * * 3.~At His|
 [B,B]2 [Cc]2 [B,B]2 (z2 [A,B,D]2) [A,B,DF]2 | z2 [G,B,]2 [G,B,]2 E4 x2 | %4
w: * sing, of * the||
w: * fied, thus * He||
w: * feet, on * old||
 (z2 [EGc]2 [EGc]2) (z2 [DFG=B]2) [EAc]2 | (z2 [B,E]2 [B,E]2) (z2 [G,B,E]2 [G,B,E]2) | %6
w: * * * faith||
w: * * * suf-||
w: * * * Ol-||
 z2 [=A,CE]2 [A,CE]2 (z2 [A,CE]2) [A,CEc]2 | [DFBd]8 [Ac]2 [GB]2 | %8
w: * * * that’s|so dear to|
w: * * * fered|and bled for|
w: * * * iv-|et’s hill, they|
 (z2 [G,B,E]2 [G,B,E]2) (z2 [G,=B,F]2 [G,B,F]2) | (z2 [G,CE]2 [G,CE]2 [G,CE]2) [A,A]2 [=A,=A]2 | %10
w: |* * * me, Re-|
w: |* * * me, Death|
w: |* * * say, Cloud|
 [B,B]2 [Cc]2 [B,B]2 (z2 [A,B,D]2) [A,B,DF]2 | z2 [G,B,]2 [G,B,]2 E4 x2 | %12
w: * vealed thro’ * God’s||
w: * and the * grave||
w: * char- iots * halt-||
 (z2 [EA]2 [EA]2) d4 [CE=F]2 [CEFc]2 | [EGe]2 [B,GB]2 [B,G]2 E2 [Ec]2 [EB]2 | %14
w: * * Son, in Gal-|* * i- lee; He brought|
w: * * won sin’s vic-|* * to- ry; Then the|
w: * * ed, took Christ|* * a- way; Then the|
 (z2 [G,B,E]2 [G,B,E]2) (z2 [A,B,D]2 [A,B,D]2) | z2 [G,B,]2 [G,B,]2 [G,B,E]4 z2 || %16
w: ||
w: ||
w: ||
"^Refrain" [Ge]2 [Gd]2 [Gc]2 [GB]2 [Gc]2 G2 | B6 B4 D2 | E2 F2 G2 [GB]2 [Gc]2 [Ge]2 | %19
w: * peace on earth and good|will to the|sons of men, Go tell it|
w: * sky grew dark and the|tem- ple veil|rent in twain, Rocks rent, and|
w: * an- gels came and to|won- dering dis-|ci- ples said, “He’ll come, and|
 [Ad]6- [Ad]4 z2 | [DF]2 [EG]2 [FA]2 [Ac]2 [Ad]2 [FA]2 | [Ac]6 [Ac]6 | %22
w: to *|the world, her king reigns a-|gain. I|
w: an- *|gels came, for He lived a-|gain. *|
w: earth *|and sea shall yield up their|dead.” *|
 [DF]2 [EG]2 [DA]2 [Ac]2 [Ad]2 [Ac]2 | (z2 [G,B,E]2 [G,B,E]2 z2 [G,B,E]2 [G,B,E]2) | %24
w: am so hap- py in Je-||
w: ||
w: ||
 [Ge]2 [Gd]2 [Gc]2 [GB]2 [Gc]2 G2 | B6 B6 | [FG=B]2 [FG=A]2 [FGB]2 [=B,DG]2 [DFA]2 [DFGB]2 | %27
w: * sus, Cap- tiv- i- ty’s|cap- tor|is He; An- gels re- joice|
w: |||
w: |||
 c12 ([EG]2 [EG]2 [EG]2 [EG]2 [EG]2) | [E^F=Ae]2 [EFAd]2 [EFAe]2 [EFc]2 [EFd]2 [EFe]2 | %29
w: when a * * * *|* soul’s saved, Some day we|
w: ||
w: ||
 [EGBe]2 [EGBe]2 [EGBe]2 G2 c2 B2 | [Fc]2 [Fd]2 [F=Ae]2 [_Ae]4 [Geg]2 | %31
w: like Him shall be; Sor- row|and joy have the same|
w: ||
w: ||
 [eg]6 ([EG-Be]2 [EG-Be]2 [EGBeg]4) z2 |] %32
w: Lord, Val- * *|
w: |
w: |
V:2
 G6 G6 | G8 x4 | x6 G4 x2 | (E6- [G,B,]2 DEFG) | e6 d4 x2 | B6 G6 | G6 F4 x2 | x12 | G6 G6 | %9
 G8 x4 | x6 G4 x2 | (E6- [G,B,]2 DEGB) | e6 [CE^F]2 x6 | x6 E2 x4 | G6 F6 | E6- x6 || x10 G2 | %17
 (E2 D2 C2) (B,2 C2) D2 | x12 | x12 | x12 | x12 | x12 | G6- G4 x2 | x10 G2 | %25
 (E2 D2 C2) (B,2 C2 E2) | x12 | [EG]2 x20 | x12 | x12 | x12 | G2- x14 |] %32
V:3
 [E,,E,]6 [D,,D,]6 | [C,,C,]6- [C,,C,]4 [_C,,_C,]2 | [B,,,B,,]8 [C,,C,]2 [D,,D,]2 | %3
 ([E,,E,]2 B,,2 G,,2 E,,4) z2 | [C,C]6 [G,,G,]4 [A,,A,]2 | [G,,G,]6 [E,,E,]6 | [C,,C,]6 [F,,F,]6 | %7
 ([B,,,B,,]2 [D,,D,]2 [F,,F,]2 [B,,B,]2) z4 | [E,,E,]6 [D,,D,]6 | [C,,C,]6- [C,,C,]4 [_C,,_C,]2 | %10
 [B,,,B,,]8 [C,,C,]2 [D,,D,]2 | [E,,E,]6 [_D,,_D,]4 z2 | [C,,C,]6 [=A,,,=A,,]6 x2 | %13
 [B,,,B,,]6 [C,G,]2 [A,,A,]2 [G,,G,]2 | B,,6 (B,,2 C,2 D,2) | (E,2 B,,2 G,,2 E,,4) z2 || %16
 E,2 [G,B,E]2 [G,B,E]2 B,,2 [G,B,E]2 [G,B,E]2 | %17
 [E,,E,]2 [D,,D,]2 [C,,C,]2 [B,,,B,,]2 [C,,C,]2 [D,,D,]2 | %18
 E,2 [G,B,E]2 [G,B,E]2 B,,2 [G,B,E]2 [G,B,E]2 | (F,2 [A,B,D]2 [A,B,D]2 B,,2 [A,B,D]2 [A,B,D]2) | %20
 F,2 [A,B,D]2 [A,B,D]2 B,,2 [A,B,D]2 [A,B,D]2 | %21
 ([F,,F,]2 [G,,G,]2 [A,,A,]2) ([C,C]2 [D,D]2 [C,C]2) | %22
 [A,,A,]2 [G,,G,]2 [F,,F,]2 B,,2 [A,B,D]2 [A,B,D]2 | ([E,,E,]6 E,,4) z2 | %24
 E,2 [G,B,E]2 [G,B,E]2 B,,2 [G,B,E]2 [G,B,E]2 | %25
 ([E,,E,]2 [D,,D,]2 [C,,C,]2) ([B,,,B,,]2 [C,,C,]2 [E,,E,]2) | %26
 z2 [F,G,=B,]2 [F,G,B,]2 z2 [F,G,B,]2 [F,G,B,]2 | %27
 (z2 [E,G,C]2 [E,G,C]2) z2 ([E,G,C]2 [E,G,C]2) x10 | [_C,=A,]2 [C,A,]2 [C,A,]2 [=A,,A,]6 | %29
 [B,,B,]6 [G,,G,]2 [C,C]2 [B,,B,]2 | [F,=A,]2 [F,B,]2 [F,C]2 [B,,D]4 [E,B,]2 | %31
 (z2 B,,2 G,,2 [E,,E,B,]4) z2 x4 |] %32
V:4
 x12 | x12 | x12 | x12 | x12 | x12 | x12 | x12 | x12 | x12 | x12 | x12 | x14 | x12 | x12 | x12 || %16
 x12 | x12 | x12 | x12 | x12 | x12 | x12 | x12 | x12 | x12 | D,6 G,,6 | C,12 x10 | x12 | x12 | %30
 x12 | [E,B,]6- x10 |] %32

